X: 32172
T: Peter Tuohey's
R: jig
M: 6/8
K: Dmixolydian
|:B|~A3 cAG|A2d cAG|F2D DED|GED DEG|
~A3 cAG|Ad^c d2e|fed cAG|Ad^c d2:|
K: Dmaj
|:e|~f3 fed|efg eAA|ded dcd|eAA efg|
~f3 fed|efg efg|~a3 gec|edc d2:|

